X: 3067
T: Bean Pháidín
R: slip jig
M: 9/8
K: Dmajor
|:FED FAA FAA|FED FAF E2D|FED FAA FAA|BAA dAF E2D:|
|:ABc dfe edB|ABc dfe d3|ABc dfe edA|BAA dAF E2D:|

